X:1
T:nos galan fel y cenir yn gheredigion
S:ifor ceri ms
A:ceredigion
M:2/4
L:1/4
Q:1/4=180
W:blewyn glas ar lan dwr teifi fal lal &c
W:a dwyllodd lawer fuwch i foddi
W:arna i ni fenodd cariad
W:mwy na dwr ar gefn whwyad
W:
W:paid a meddwl fenws dirion
W:ar dy ol y dorra i 'nghalon
W:'dwy ti ond un o ddwy ar bymtheg
W:os pallu di mi dreia chwaneg
K:G
d>cB>A|GBGF|EAFE/D/|EFG2:||
A>GA>G|ABcA|dde/f/g|fed2|BdAB|GGA/B/c|d>cB/c/B/A/|GDG2:||
Contact us
